X:435
T:Hanter-dro
Z:Jack Campin, http://www.campin.me.uk/
F:Jack Campin's Nine-Note Tunebook
% last edit 03-02-2013
S:Cam-French Tune Book
M:2/4
L:1/8
Q:1/4=200
K:C
C2 EF|G2 A2|G4   |c2 BA|G2 E2|[1 F2 G2:|\
                              [2 G4   ||
G2 AG|C2 D2|E2 C2|DE F2|E2 C2|   D2 D2 |
G2 AG|C2 D2|E2 C2|DE F2|E2 D2|   C4   :|

